world_stage/static/flags/rect/gmb.svg

<svg height="533.33331" viewBox="0 0 800 533.33331" width="800" xmlns="http://www.w3.org/2000/svg"><g transform="matrix(1.3333333 0 0 -1.3333333 0 533.33333)"><path d="m0 266.666h600v133.333h-600z" fill="#ce1126"/><path d="m0 133.333h600v133.333h-600z" fill="#fff"/><path d="m0 155.556h600v88.889h-600z" fill="#0c1c8c"/><path d="m0 0h600v133.333h-600z" fill="#3a7728"/></g></svg>

<?xml version="1.0" encoding="UTF-8" standalone="no"?>
<!-- Created with Inkscape (http://www.inkscape.org/) -->

<svg
   version="1.1"
   id="svg1"
   width="800"
   height="533.33331"
   viewBox="0 0 800 533.33331"
   sodipodi:docname="gm.ai"
   xmlns:inkscape="http://www.inkscape.org/namespaces/inkscape"
   xmlns:sodipodi="http://sodipodi.sourceforge.net/DTD/sodipodi-0.dtd"
   xmlns="http://www.w3.org/2000/svg"
   xmlns:svg="http://www.w3.org/2000/svg">
  <defs
     id="defs1" />
  <sodipodi:namedview
     id="namedview1"
     pagecolor="#ffffff"
     bordercolor="#000000"
     borderopacity="0.25"
     inkscape:showpageshadow="2"
     inkscape:pageopacity="0.0"
     inkscape:pagecheckerboard="0"
     inkscape:deskcolor="#d1d1d1">
    <inkscape:page
       x="0"
       y="0"
       inkscape:label="1"
       id="page1"
       width="800"
       height="533.33331"
       margin="2.035e-05 0 0"
       bleed="0" />
  </sodipodi:namedview>
  <g
     id="layer-MC0"
     inkscape:groupmode="layer"
     inkscape:label="Layer 1">
    <path
       id="path1"
       d="M 0,266.666 H 600 V 399.999 H 0 Z"
       style="fill:#ce1126;fill-opacity:1;fill-rule:nonzero;stroke:none"
       transform="matrix(1.3333333,0,0,-1.3333333,0,533.33333)" />
    <path
       id="path2"
       d="M 0,133.333 H 600 V 266.666 H 0 Z"
       style="fill:#ffffff;fill-opacity:1;fill-rule:nonzero;stroke:none"
       transform="matrix(1.3333333,0,0,-1.3333333,0,533.33333)" />
    <path
       id="path3"
       d="m 0,155.556 h 600 v 88.889 H 0 Z"
       style="fill:#0c1c8c;fill-opacity:1;fill-rule:nonzero;stroke:none"
       transform="matrix(1.3333333,0,0,-1.3333333,0,533.33333)" />
    <path
       id="path4"
       d="M 0,0 H 600 V 133.333 H 0 Z"
       style="fill:#3a7728;fill-opacity:1;fill-rule:nonzero;stroke:none"
       transform="matrix(1.3333333,0,0,-1.3333333,0,533.33333)" />
  </g>
</svg>
